packages/kaspersky-hexa-ui-icons/src/iconsSVGs/24/ArrowRight.svg

<svg width="24" height="24" viewBox="0 0 24 24" fill="none" xmlns="http://www.w3.org/2000/svg">
<path fill-rule="evenodd" clip-rule="evenodd" d="M8.79243 17.7066C8.40216 17.3159 8.40258 16.6827 8.79336 16.2924L13.0858 12.0057L8.79243 7.70664C8.40216 7.31586 8.40258 6.68269 8.79336 6.29243C9.18414 5.90216 9.81731 5.90258 10.2076 6.29336L15.2076 11.3C15.395 11.4876 15.5002 11.742 15.5 12.0073C15.4998 12.2725 15.3943 12.5268 15.2066 12.7142L10.2066 17.7076C9.81586 18.0978 9.18269 18.0974 8.79243 17.7066Z" fill="black"/>
</svg>

<svg xmlns="http://www.w3.org/2000/svg" width="24" height="24" fill="none" viewBox="0 0 24 24"><path fill="#000" fill-rule="evenodd" d="M8.7924 17.7066c-.3902-.3907-.3898-1.0239.001-1.4142l4.2924-4.2867-4.2934-4.299c-.3902-.3908-.3898-1.024.001-1.4143s1.024-.3898 1.4142.001l5 5.0066a.9997.9997 0 0 1-.001 1.4142l-5 4.9934c-.3907.3902-1.024.3898-1.4142-.001" clip-rule="evenodd"/></svg>
